!!!OTL-incypit: Es geht nichts ueber die Gemuetlichkeit, eijo, bleib do
!!!ARE: Europa, Mitteleuropa, Deutschland, Ober - Franken, Gleismuthhausen
!!!SCT: V0002
!!!TXL: @@DE
!!!YEM: Copyright 1995, estate of Helmut Schaffrath.
**kern	**text
*ICvox	*
!! Mixed meters:  2/4; 3/4
*M2/4	*
*k[]	*
*C:	*
{8G	Es
=1	=1
8c	geht
8c	nichts
16.c	Ӯ-
32c	-ber
16c	die
16d	Ge-
=2	=2
8e	-mӮt-
8e	-lich-
8e	-keit,
8g	ei-
=3	=3
4d	-jo,
8r	.
8g	bleib
=4	=4
4c	do,
8r}	.
{8G	habn
=5	=5
8c	wir's
8c	kein
8c	Geld,
16cL	habn's
16dJ	.
=6	=6
8e	an-
8e	-dre
8e	Leut,
8g	ei-
=7	=7
4d	-jo,
8r	.
8g	bleib
=8	=8
4c	do.
8r}	.
{16g	.
16cc	.
=9|:	=9|:
*M3/4	*
!LO:TX:a:t=Walzer auf Silben gesungen.	!
2b	.
4a	.
=10	=10
2g	.
4f	.
=11	=11
4e	.
8r	.
8e	.
4e	.
=12	=12
4r}	.
{4a	.
4g	.
=13	=13
4f	.
8r	.
8e	.
4f	.
=14	=14
4r	.
4a	.
4g	.
=15	=15
4e	.
8r	.
8d#	.
4e	.
=16	=16
4r}	.
{4g	.
4cc	.
=17	=17
2b	.
4a	.
=18	=18
2g	.
4f	.
=19	=19
4e	.
8r	.
8d#	.
4e	.
=20	=20
4r	.
4r}	.
{8gL	.
8gJ	.
=21	=21
4.a	.
8a	.
4a	.
=22	=22
4b	.
4a	.
4b	.
[2.cc	.
=24	=24
4cc]	.
4r	.
4r}	.
==	==
!!!AGN: Geselligkeits - Lied, Gemuetlichkeit
!!!ONB: ESAC (Essen Associative Code) Database: VARIANT
!!!AMT: irregular
!!!AIN: vox
!!!EED: Helmut Schaffrath
!!!EEV: 1.0
!!!GTL: Gemuetlichkeit
!!!source: Heigl, U.; Liertz, M. J.. et al.: Registeer un Beispielsammlung zu den Forschungsexkursionen des Instituts fӮr Volkskunde nach Oberfranken. Maschinenschriftliches Manuskript, MӮnchen 1982.
!!!page: 81
!!!ENC: Anna Maria Matuszewska
!!!EEV: 2025/04/01
*-	*-
